src/icons/date.svg

<svg width="19" height="21" viewBox="0 0 19 21" fill="none" xmlns="http://www.w3.org/2000/svg">
<path d="M15.2422 3.25C16.0755 3.25 16.7786 3.54948 17.3516 4.14844C17.9505 4.72135 18.25 5.42448 18.25 6.25781V17.7422C18.25 18.5755 17.9505 19.2786 17.3516 19.8516C16.7786 20.4505 16.0755 20.75 15.2422 20.75H3.75781C2.92448 20.75 2.20833 20.4505 1.60938 19.8516C1.03646 19.2786 0.75 18.5755 0.75 17.7422V6.25781C0.75 5.42448 1.03646 4.72135 1.60938 4.14844C2.20833 3.54948 2.92448 3.25 3.75781 3.25H4.73438V1.76562C4.73438 1.47917 4.82552 1.24479 5.00781 1.0625C5.21615 0.854167 5.46354 0.75 5.75 0.75C6.03646 0.75 6.27083 0.854167 6.45312 1.0625C6.66146 1.24479 6.76562 1.47917 6.76562 1.76562V3.25H12.2344V1.76562C12.2344 1.47917 12.3255 1.24479 12.5078 1.0625C12.7161 0.854167 12.9635 0.75 13.25 0.75C13.5365 0.75 13.7708 0.854167 13.9531 1.0625C14.1615 1.24479 14.2656 1.47917 14.2656 1.76562V3.25H15.2422ZM3.75781 5.24219C3.47135 5.24219 3.22396 5.34635 3.01562 5.55469C2.83333 5.73698 2.74219 5.97135 2.74219 6.25781V8.75781H16.2578V6.25781C16.2578 5.97135 16.1536 5.73698 15.9453 5.55469C15.763 5.34635 15.5286 5.24219 15.2422 5.24219H14.2656V5.98438C14.2656 6.27083 14.1615 6.51823 13.9531 6.72656C13.7708 6.90885 13.5365 7 13.25 7C12.9635 7 12.7161 6.90885 12.5078 6.72656C12.3255 6.51823 12.2344 6.27083 12.2344 5.98438V5.24219H6.76562V5.98438C6.76562 6.27083 6.66146 6.51823 6.45312 6.72656C6.27083 6.90885 6.03646 7 5.75 7C5.46354 7 5.21615 6.90885 5.00781 6.72656C4.82552 6.51823 4.73438 6.27083 4.73438 5.98438V5.24219H3.75781ZM15.2422 18.7578C15.5286 18.7578 15.763 18.6667 15.9453 18.4844C16.1536 18.276 16.2578 18.0286 16.2578 17.7422V10.75H2.74219V17.7422C2.74219 18.0286 2.83333 18.276 3.01562 18.4844C3.22396 18.6667 3.47135 18.7578 3.75781 18.7578H15.2422ZM5.75 13.25C6.11458 13.25 6.41406 13.3672 6.64844 13.6016C6.88281 13.8359 7 14.1354 7 14.5C7 14.8646 6.88281 15.1641 6.64844 15.3984C6.41406 15.6328 6.11458 15.75 5.75 15.75C5.38542 15.75 5.08594 15.6328 4.85156 15.3984C4.61719 15.1641 4.5 14.8646 4.5 14.5C4.5 14.1354 4.61719 13.8359 4.85156 13.6016C5.08594 13.3672 5.38542 13.25 5.75 13.25ZM9.5 13.25C9.86458 13.25 10.1641 13.3672 10.3984 13.6016C10.6328 13.8359 10.75 14.1354 10.75 14.5C10.75 14.8646 10.6328 15.1641 10.3984 15.3984C10.1641 15.6328 9.86458 15.75 9.5 15.75C9.13542 15.75 8.83594 15.6328 8.60156 15.3984C8.36719 15.1641 8.25 14.8646 8.25 14.5C8.25 14.1354 8.36719 13.8359 8.60156 13.6016C8.83594 13.3672 9.13542 13.25 9.5 13.25ZM13.25 13.25C13.6146 13.25 13.9141 13.3672 14.1484 13.6016C14.3828 13.8359 14.5 14.1354 14.5 14.5C14.5 14.8646 14.3828 15.1641 14.1484 15.3984C13.9141 15.6328 13.6146 15.75 13.25 15.75C12.8854 15.75 12.5859 15.6328 12.3516 15.3984C12.1172 15.1641 12 14.8646 12 14.5C12 14.1354 12.1172 13.8359 12.3516 13.6016C12.5859 13.3672 12.8854 13.25 13.25 13.25Z" />
</svg>

<svg width="19" height="21"><path d="M15.242 3.25c.834 0 1.537.3 2.11.898.599.573.898 1.276.898 2.11v11.484c0 .834-.3 1.537-.898 2.11a2.806 2.806 0 0 1-2.11.898H3.758c-.834 0-1.55-.3-2.149-.898-.573-.573-.859-1.276-.859-2.11V6.258c0-.834.286-1.537.86-2.11.598-.599 1.314-.898 2.148-.898h.976V1.766c0-.287.092-.521.274-.704.208-.208.456-.312.742-.312s.52.104.703.313a.892.892 0 0 1 .313.703V3.25h5.468V1.766c0-.287.091-.521.274-.704.208-.208.456-.312.742-.312.287 0 .52.104.703.313a.891.891 0 0 1 .313.703V3.25h.976ZM3.758 5.242c-.287 0-.534.104-.742.313a.952.952 0 0 0-.274.703v2.5h13.516v-2.5a.892.892 0 0 0-.313-.703.892.892 0 0 0-.703-.313h-.976v.742c0 .287-.104.534-.313.743A.952.952 0 0 1 13.25 7a1.09 1.09 0 0 1-.742-.273 1.09 1.09 0 0 1-.274-.743v-.742H6.766v.742c0 .287-.105.534-.313.743A.952.952 0 0 1 5.75 7a1.09 1.09 0 0 1-.742-.273 1.09 1.09 0 0 1-.274-.743v-.742h-.976Zm11.484 13.516c.287 0 .521-.091.703-.274.209-.208.313-.455.313-.742V10.75H2.742v6.992c0 .287.091.534.274.742.208.183.455.274.742.274h11.484ZM5.75 13.25c.365 0 .664.117.898.352.235.234.352.533.352.898s-.117.664-.352.898c-.234.235-.533.352-.898.352s-.664-.117-.898-.352c-.235-.234-.352-.533-.352-.898s.117-.664.352-.898c.234-.235.533-.352.898-.352Zm3.75 0c.365 0 .664.117.898.352.235.234.352.533.352.898s-.117.664-.352.898c-.234.235-.533.352-.898.352s-.664-.117-.898-.352c-.235-.234-.352-.533-.352-.898s.117-.664.352-.898c.234-.235.533-.352.898-.352Zm3.75 0c.365 0 .664.117.898.352.235.234.352.533.352.898s-.117.664-.352.898c-.234.235-.533.352-.898.352s-.664-.117-.898-.352c-.235-.234-.352-.533-.352-.898s.117-.664.352-.898c.234-.235.533-.352.898-.352Z"/></svg>
